neru-light-classic/32x32/apps/chess.svg

<?xml version="1.0" encoding="UTF-8" standalone="no"?>
<svg
   xmlns:dc="http://purl.org/dc/elements/1.1/"
   xmlns:cc="http://creativecommons.org/ns#"
   xmlns:rdf="http://www.w3.org/1999/02/22-rdf-syntax-ns#"
   xmlns:svg="http://www.w3.org/2000/svg"
   xmlns="http://www.w3.org/2000/svg"
   xmlns:sodipodi="http://sodipodi.sourceforge.net/DTD/sodipodi-0.dtd"
   xmlns:inkscape="http://www.inkscape.org/namespaces/inkscape"
   width="32"
   height="32"
   viewBox="0 0 32 32"
   version="1.1"
   id="svg8"
   sodipodi:docname="chess.svg"
   inkscape:version="0.92.1 r">
  <metadata
     id="metadata14">
    <rdf:RDF>
      <cc:Work
         rdf:about="">
        <dc:format>image/svg+xml</dc:format>
        <dc:type
           rdf:resource="http://purl.org/dc/dcmitype/StillImage" />
      </cc:Work>
    </rdf:RDF>
  </metadata>
  <defs
     id="defs12" />
  <sodipodi:namedview
     pagecolor="#ffffff"
     bordercolor="#666666"
     borderopacity="1"
     objecttolerance="10"
     gridtolerance="10"
     guidetolerance="10"
     inkscape:pageopacity="0"
     inkscape:pageshadow="2"
     inkscape:window-width="1680"
     inkscape:window-height="963"
     id="namedview10"
     showgrid="false"
     inkscape:zoom="7.375"
     inkscape:cx="-8.6779661"
     inkscape:cy="16"
     inkscape:window-x="0"
     inkscape:window-y="0"
     inkscape:window-maximized="1"
     inkscape:current-layer="svg8" />
  <rect
     style="opacity:1;fill:#666666;fill-opacity:1;fill-rule:evenodd;stroke:none;stroke-width:1.03534329;stroke-linecap:round;stroke-linejoin:bevel;stroke-miterlimit:4;stroke-dasharray:none;stroke-dashoffset:0;stroke-opacity:1"
     id="rect4497-3"
     width="28.203388"
     height="28.203388"
     x="1.8983059"
     y="1.8983059"
     ry="5.575182" />
  <path
     d="M 16.825793,4.9032899 C 16.701154,4.9654329 16.55855,5.0120394 16.446253,5.0972634 16.230101,5.2631616 16.019563,5.4403788 15.825869,5.631467 15.613086,5.8410869 15.393004,5.9599345 15.082531,6.0237415 14.336387,6.174992 13.895699,6.3424438 13.198399,6.6349575 11.64772,7.2875648 10.62142,8.5168768 9.8898721,9.9955356 9.2408551,11.30996 9.2290651,12.734799 9.2824011,14.166296 c 0.110042,2.953323 1.8694039,5.109446 2.8103669,7.382087 h 0.243662 c -0.367178,0 -0.695852,0.246905 -0.695852,0.553733 v 1.111797 c 0,0.306828 0.328674,0.712064 0.695852,0.712064 h -0.523087 c -0.480026,0 -0.965387,0.370636 -0.965387,0.831156 v 1.508421 c 0,0.46052 0.485361,0.831156 0.965387,0.831156 h 7.653586 c 0.480026,0 0.892493,-0.370636 0.892493,-0.831156 v -1.508421 c 0,-0.46052 -0.412467,-0.831156 -0.892493,-0.831156 h -0.52306 c 0.367178,0 0.622931,-0.405236 0.622931,-0.712064 v -1.111797 c 0,-0.306828 -0.255753,-0.553733 -0.622931,-0.553733 h 0.102181 c 0.238047,-0.220828 0.227629,-0.616432 0.439851,-0.842253 0.961735,-1.017584 1.133534,-2.461843 0.45813,-3.698589 -0.330123,-0.60367 -0.794428,-1.093598 -1.330035,-1.512505 -0.60298,-0.471505 -1.226171,-0.915936 -1.834214,-1.38034 -0.174045,-0.133162 -0.15216,-0.283941 -0.383471,-0.492562 0.573224,0.120955 0.855086,0.270625 1.316583,0.293928 0.796674,0.03884 1.483869,0.382804 2.121657,0.846653 0.246469,0.179214 0.532801,0.322919 0.821377,0.422791 0.375037,0.128613 0.561433,0.03662 0.784884,-0.30239 0.05895,-0.08988 0.09432,-0.19253 0.150464,-0.310158 0.444094,0.0111 0.688317,-0.329538 0.810148,-0.740122 0.04155,-0.140376 0.112287,-0.270209 0.163378,-0.406701 0.345281,-0.914383 0.167868,-1.7239 -0.4935,-2.429661 -0.147657,-0.16146 -0.323385,-0.295732 -0.47778,-0.450533 C 21.078126,10.031046 20.559923,9.5189246 20.057441,8.9918231 19.692509,8.608426 19.36407,8.1911834 18.99577,7.8107825 18.813304,7.6233563 18.659472,7.4357081 18.574695,7.1843639 18.446688,6.8077358 18.206394,6.5177745 17.856622,6.3218036 17.732545,6.2518936 17.297396,6.171441 17.207568,6.1137372 17.063279,5.6933876 17.405191,5.1675066 16.825793,4.9032899 Z"
     style="fill:#f9f9f9;stroke-width:0.79262215"
     id="path4"
     inkscape:connector-curvature="0" />
</svg>

<svg xmlns="http://www.w3.org/2000/svg" width="32" height="32"><rect width="28.203" height="28.203" x="1.898" y="1.898" ry="5.575" fill="#666" fill-rule="evenodd"/><path d="M16.826 4.903c-.125.062-.267.109-.38.194a6.628 6.628 0 0 0-.62.534c-.213.21-.433.329-.743.393-.747.151-1.187.318-1.885.611-1.55.653-2.577 1.882-3.308 3.36-.65 1.315-.66 2.74-.608 4.171.11 2.954 1.87 5.11 2.81 7.382h.244c-.367 0-.695.247-.695.554v1.112c0 .307.328.712.695.712h-.523c-.48 0-.965.37-.965.831v1.509c0 .46.485.83.965.83h7.654c.48 0 .892-.37.892-.83v-1.509c0-.46-.412-.831-.892-.831h-.523c.367 0 .623-.405.623-.712v-1.112c0-.307-.256-.554-.623-.554h.102c.238-.22.228-.616.44-.842.962-1.017 1.133-2.462.458-3.698-.33-.604-.794-1.094-1.33-1.513-.603-.471-1.226-.916-1.834-1.38-.174-.133-.152-.284-.384-.493.574.121.855.27 1.317.294.797.039 1.484.383 2.122.847.246.179.532.323.82.423.376.128.562.036.786-.303.059-.09.094-.192.15-.31.444.011.689-.33.81-.74.042-.14.113-.27.164-.407.345-.914.168-1.724-.494-2.43-.147-.161-.323-.295-.477-.45-.516-.515-1.034-1.027-1.537-1.554-.364-.384-.693-.8-1.061-1.181-.183-.188-.337-.375-.421-.627a1.522 1.522 0 0 0-.718-.862c-.124-.07-.56-.15-.65-.208-.144-.42.198-.946-.381-1.21z" fill="#f9f9f9"/></svg>
